X:1
T:The Bonny Lass of Fisherrow
T:The Bonny Lass of Fisherrow
T:Donald Dow
C:Donald Dow
L:1/8
Q:1/8=232
M:4/4
K:C
V:1 treble 
V:1
|: c | GEcG Ac GE | CE GE D2 A2 | GE Gc AF Ac | Bd GB c2 cc | GE cG Ac GE | CE GE D2 A2 | %7
 GE Gc AF Ac | Bd GB c2 cf | ec gc eg ca | gc ec de fa | gc eg fa df | eg de c2 cf | ec gc eg ca | %14
 gc ec de fd | cA Fc Bd Gf | eg de c2 c :| %17

